X:1
T:Title
%%score 1 { 2 | 3 }
L:1/8
Q:1/4=87
M:6/8
K:Eb
V:1 treble nm="Akkordion"
V:2 bass nm="Grand Piano"
V:3 bass 
V:1
 [GB]2 [GB] [_G=A][=GB][_Ac] | [GB]3 [EG]3 | [DF][DF][EG] [FA]2 [FA] | %3
w: H.~R.~Palmer * * * *|||
[M:15/16] [EG][EG]/-[EG]/[FA][GB]3/2- [GB]3 |[M:3/4] [GB]2 [GB][_G=A] [=GB][_Ac] | [GB]3 [EG]3 | %6
w: |||
 [DF][DF] [EG][FA] [GB][FA] | [EG]6 | z6 | z6 | z6 | z6 | z6 | z6 | z6 | z6 |] %16
w: ||||||||||
V:2
 E,3 G3 | E,3 G3 | B,,3[K:treble] A3 |[M:15/16] E,3 G3/2- G3 |[M:3/4] E,3 G3 | E,3 G3 | %6
 B,,3[K:treble] A3 | [B,EG]6 | [GB][FA] [FA] [FA]3 | [FA]G G G3 | [EG][DF] [DF][DF] [EG][FA] | %11
 [Ac]3 [GB]3 | [GB][FA] [FA] [FA]3 | [FA]G G G3 | [DF][EG] [FA][GB] [Ac][Fd] | [Ee]6 |] %16
V:3
 E,,3 [B,E]3 | E,,3 [B,E]3 | B,,,3 [B,DF]3 |[M:15/16] E,,3 [B,E]3/2- [B,E]3 |[M:3/4] E,,3 [B,E]3 | %5
 E,,3 [B,E]3 | B,,,3 [B,DF]3 | [E,,E,]6 | [B,,B,][B,,B,] [B,,B,] [B,,B,]3 | %9
 [E,B,][E,B,E] [E,B,E] [E,B,E]3 | [B,,B,][B,,B,] [B,,B,][B,,B,] [B,,B,][B,,B,] | [E,B,]3 [E,B,]3 | %12
 [B,,B,][B,,B,] [B,,B,] [B,,B,]3 | [E,B,][E,B,E] [E,B,E] [E,B,E]3 | %14
 [B,,B,][B,,B,] [B,,B,][B,,B,] [B,,B,][B,,A,] | [E,G,]6 |] %16

